
d1 $ superimpose (|* speed "1.5 2 1.125")
$ n (scramble 6 "5 14 16 19 22 23 25 27") -- 11 14 - 5 7 14 16 18 22 23 25 - 5 14 25 - 25 - 21
# s "p-wash"
# cps 0.5
# pan rand
# cutoff (range 300 2500 $ rand)
# room 0.5
# gain (range 0.8 1 $ rand)
|* speed (-1)
# delay "0.8"
# delayfeedback 0.8
# orbit 1
|* speed (slow 20 $ range 0.99 1.01 $ sine)


hush
